!! 00000] TT[WS
!!!OTL: Da yengtao
!!!ARE: Asia, China, Shanxi Yanbei
!! Ethnic Group: Han
!! WII, 108 (2)
!!!SCT: J0561
!!!YEM: Copyright 1995, estate of Helmut Schaffrath.
**kern
*ICvox
*Ivox
*M2/4
*k[f#c#g#]
*A:
{8b
8cc#
16b
16cc#
16b
16a
=1
16b
16cc#
8f#
8f#
8f#
=2
8b
8b
8c#
16c#
16e
=3
8f#
16f#
16b
4f#}
=4
{8f#
8b
16b
16cc#
16b
16f#
=5
8a
16f#
16e
8.d
16e
=6
8f#
8f#
8.a
16d
=7
2B}
==
!!!AGN: Xiaodiao. Qingge, Sichun
!!!ONB: ESAC (Essen Associative Code) Database: CHINA
!!!AMT: simple duple
!!!AIN: vox
!!!EED: Helmut Schaffrath
!!!EEV: 1.0
*-
